X:WFS 13-12 03
T:Tomorrow Will Be My Dancing Day
M:6/8
P:ABC
K:G
[P:A] D| GFG ABc | dcB A2B | GFG ABc | dcB A2
[P:B] d| d2B c2B | AGB A2D | G2A Bcd | cBA G2
[P:C] B|[M:9/8] A2B/c/ d3 BGB | A2B A2B A2D |[M:6/8] G2A Bcd | cBA G2  |]

